icons/square/48/veracrypt.svg

<?xml version="1.0" encoding="UTF-8"?>
<svg version="1.1" viewBox="0 0 48 48" xmlns="http://www.w3.org/2000/svg" xmlns:cc="http://creativecommons.org/ns#" xmlns:dc="http://purl.org/dc/elements/1.1/" xmlns:rdf="http://www.w3.org/1999/02/22-rdf-syntax-ns#" xmlns:xlink="http://www.w3.org/1999/xlink">
 <metadata>
  <rdf:RDF>
   <cc:Work rdf:about="">
    <dc:format>image/svg+xml</dc:format>
    <dc:type rdf:resource="http://purl.org/dc/dcmitype/StillImage"/>
    <dc:title/>
   </cc:Work>
  </rdf:RDF>
 </metadata>
 <defs>
  <linearGradient id="linearGradient872" x1="-47" x2="-1" y1="2.8779e-15" y2="6.1232e-17" gradientUnits="userSpaceOnUse">
   <stop style="stop-color:#164b6e" offset="0"/>
   <stop style="stop-color:#19567f" offset="1"/>
  </linearGradient>
 </defs>
 <path d="m1 43v0.25c0 2.216 1.784 4 4 4h38c2.216 0 4-1.784 4-4v-0.25c0 2.216-1.784 4-4 4h-38c-2.216 0-4-1.784-4-4zm0 0.5v0.5c0 2.216 1.784 4 4 4h38c2.216 0 4-1.784 4-4v-0.5c0 2.216-1.784 4-4 4h-38c-2.216 0-4-1.784-4-4z" opacity=".02"/>
 <path d="m1 43.25v0.25c0 2.216 1.784 4 4 4h38c2.216 0 4-1.784 4-4v-0.25c0 2.216-1.784 4-4 4h-38c-2.216 0-4-1.784-4-4z" opacity=".05"/>
 <path d="m1 43v0.25c0 2.216 1.784 4 4 4h38c2.216 0 4-1.784 4-4v-0.25c0 2.216-1.784 4-4 4h-38c-2.216 0-4-1.784-4-4z" opacity=".1"/>
 <rect transform="rotate(-90)" x="-47" y="1" width="46" height="46" rx="4" style="fill:url(#linearGradient872)"/>
 <g transform="translate(0 -1004.4)">
  <path d="m1 1043.4v4c0 2.216 1.784 4 4 4h38c2.216 0 4-1.784 4-4v-4c0 2.216-1.784 4-4 4h-38c-2.216 0-4-1.784-4-4z" opacity=".1"/>
 </g>
 <g transform="matrix(.36024 0 0 .34179 13.068 18.056)">
  <g transform="translate(-2.7003 1.1334e-6)">
   <g transform="translate(2.7759 -2.9258)">
    <g transform="translate(-5.6721 -2.7003)">
     <path d="m-5.695-3.303 27 46.801h13.505l6.685-11.703 6.815 11.703h27.01l-6.75-11.692h-13.505l-6.75-11.703 6.75-11.703h-0.027l0.027-0.011h13.505l6.75-11.692h-27.01l-20.695 35.1-19.811-35.1" style="opacity:.1"/>
    </g>
    <g transform="translate(-2.8949 -2.7003)">
     <path d="m72.54 40.572h-13.502v-8.101l6.751-3.592z" style="fill:#2bac8f"/>
     <path d="m65.787 28.879h-13.501l1.351 6.292 5.4 5.4z" style="fill:#2e997c"/>
     <path d="m59.04 40.572h-13.502l2.701-8.101 4.05-3.592z" style="fill:#278768"/>
     <path d="m45.535 17.18-5.4-3.618-8.102 3.618 6.751 11.692z" style="fill:#21674f"/>
     <path d="m52.29 28.879-6.75-1.809-6.751 1.809 6.751 11.692z" style="fill:#2a8d70"/>
     <path d="m52.29 28.869h-13.501l3.318-5.747 3.432-5.945z" style="fill:#2f9f81"/>
     <path d="m72.54-6.229h-13.501v6.267l6.75 5.425z" style="fill:#96cfba"/>
     <path d="m65.788 5.463h-13.502l1.35-8.126 5.4-3.566z" style="fill:#85c8b1"/>
     <path d="m59.04-6.229h-13.501v6.267l6.75 5.425z" style="fill:#6bbfa4"/>
     <path d="m52.29 5.465-6.75 2.675-6.751-2.675 6.751-11.692z" style="fill:#52b99b"/>
     <path d="m52.29 5.474h-13.501l1.351 5.375 5.4 6.317z" style="fill:#44b799"/>
     <path d="m45.535 17.17h-13.501l6.751-11.692z" style="fill:#33b394"/>
     <path d="m38.784 28.87-6.75 3.592-6.752-3.592 6.751-11.692z" style="fill:#2da4ad"/>
     <path d="m38.785 28.879h-13.502l0.216 7.607 6.535 4.086z" style="fill:#2f98af"/>
     <path d="m32.03 40.572h-13.502l1e-3 -8.101 6.75-3.592 3.328 5.763z" style="fill:#0d657a"/>
     <path d="m25.282 28.879-6.75-1.809-6.752 1.809 6.751 11.692" style="fill:#2a69b1"/>
     <path d="m25.282 28.869h-13.501l1.351-7.209 5.4-4.483z" style="fill:#2077bc"/>
     <path d="m18.531 17.18-8.1-3.618-5.402 3.618 6.751 11.692" style="fill:#2886c7"/>
     <path d="m18.532 17.17h-13.502l1e-3 -9.02 6.75-2.674z" style="fill:#238dcd"/>
     <path d="m11.82 5.439-6.79-2.726-6.752 2.726 6.771 11.727" style="fill:#1a9cd1"/>
     <path d="m11.78 5.463h-13.501l1.351-5.426 5.4-6.266z" style="fill:#0ea6d3"/>
     <path d="m5.03-6.229h-13.501l6.751 11.692z" style="fill:#08abd8"/>
    </g>
   </g>
  </g>
 </g>
</svg>

<?xml version="1.0" encoding="UTF-8" standalone="no"?>
<svg
   xmlns:dc="http://purl.org/dc/elements/1.1/"
   xmlns:cc="http://creativecommons.org/ns#"
   xmlns:rdf="http://www.w3.org/1999/02/22-rdf-syntax-ns#"
   xmlns:svg="http://www.w3.org/2000/svg"
   xmlns="http://www.w3.org/2000/svg"
   xmlns:xlink="http://www.w3.org/1999/xlink"
   xmlns:sodipodi="http://sodipodi.sourceforge.net/DTD/sodipodi-0.dtd"
   xmlns:inkscape="http://www.inkscape.org/namespaces/inkscape"
   viewBox="0 0 48 48"
   version="1.1"
   id="svg73"
   sodipodi:docname="veracrypt.svg"
   inkscape:version="0.92.1 r">
  <metadata
     id="metadata77">
    <rdf:RDF>
      <cc:Work
         rdf:about="">
        <dc:format>image/svg+xml</dc:format>
        <dc:type
           rdf:resource="http://purl.org/dc/dcmitype/StillImage" />
      </cc:Work>
    </rdf:RDF>
  </metadata>
  <sodipodi:namedview
     pagecolor="#ffffff"
     bordercolor="#666666"
     borderopacity="1"
     objecttolerance="10"
     gridtolerance="10"
     guidetolerance="10"
     inkscape:pageopacity="0"
     inkscape:pageshadow="2"
     inkscape:window-width="1920"
     inkscape:window-height="2033"
     id="namedview75"
     showgrid="false"
     inkscape:zoom="13.602184"
     inkscape:cx="35.590045"
     inkscape:cy="-6.6548839"
     inkscape:window-x="0"
     inkscape:window-y="55"
     inkscape:window-maximized="0"
     inkscape:current-layer="svg73">
    <inkscape:grid
       type="xygrid"
       id="grid944" />
  </sodipodi:namedview>
  <defs
     id="defs17">
    <linearGradient
       inkscape:collect="always"
       id="linearGradient870">
      <stop
         style="stop-color:#164b6e;stop-opacity:1"
         offset="0"
         id="stop866" />
      <stop
         style="stop-color:#19567f;stop-opacity:1"
         offset="1"
         id="stop868" />
    </linearGradient>
    <linearGradient
       id="linearGradient3764"
       x1="1"
       x2="47"
       gradientUnits="userSpaceOnUse"
       gradientTransform="translate(-48.000001,0.00221467)">
      <stop
         stop-color="#1e8a1e"
         stop-opacity="1"
         id="stop2"
         style="stop-color:#164b6e;stop-opacity:1" />
      <stop
         offset="1"
         stop-color="#229a22"
         stop-opacity="1"
         id="stop4"
         style="stop-color:#19567f;stop-opacity:1" />
    </linearGradient>
    <clipPath
       id="clipPath-350634486">
      <g
         transform="translate(0,-1004.3622)"
         id="g9">
        <rect
           rx="4"
           y="1005.36"
           x="1"
           height="46"
           width="46"
           fill="#1890d0"
           id="rect7" />
      </g>
    </clipPath>
    <clipPath
       id="clipPath-363563949">
      <g
         transform="translate(0,-1004.3622)"
         id="g14">
        <rect
           rx="4"
           y="1005.36"
           x="1"
           height="46"
           width="46"
           fill="#1890d0"
           id="rect12" />
      </g>
    </clipPath>
    <linearGradient
       inkscape:collect="always"
       xlink:href="#linearGradient870"
       id="linearGradient872"
       x1="-47"
       y1="2.87792e-15"
       x2="-1"
       y2="6.1232343e-17"
       gradientUnits="userSpaceOnUse" />
  </defs>
  <g
     id="g25">
    <path
       d="m 1 43 l 0 0.25 c 0 2.216 1.784 4 4 4 l 38 0 c 2.216 0 4 -1.784 4 -4 l 0 -0.25 c 0 2.216 -1.784 4 -4 4 l -38 0 c -2.216 0 -4 -1.784 -4 -4 z m 0 0.5 l 0 0.5 c 0 2.216 1.784 4 4 4 l 38 0 c 2.216 0 4 -1.784 4 -4 l 0 -0.5 c 0 2.216 -1.784 4 -4 4 l -38 0 c -2.216 0 -4 -1.784 -4 -4 z"
       opacity="0.02"
       id="path19" />
    <path
       d="m 1 43.25 l 0 0.25 c 0 2.216 1.784 4 4 4 l 38 0 c 2.216 0 4 -1.784 4 -4 l 0 -0.25 c 0 2.216 -1.784 4 -4 4 l -38 0 c -2.216 0 -4 -1.784 -4 -4 z"
       opacity="0.05"
       id="path21" />
    <path
       d="m 1 43 l 0 0.25 c 0 2.216 1.784 4 4 4 l 38 0 c 2.216 0 4 -1.784 4 -4 l 0 -0.25 c 0 2.216 -1.784 4 -4 4 l -38 0 c -2.216 0 -4 -1.784 -4 -4 z"
       opacity="0.1"
       id="path23" />
  </g>
  <rect
     style="fill:url(#linearGradient872);fill-opacity:1"
     id="rect27"
     transform="rotate(-90)"
     rx="4"
     y="1"
     x="-47"
     height="46"
     width="46" />
  <g
     id="g71">
    <g
       transform="translate(0,-1004.3622)"
       id="g69">
      <path
         d="m 1 1043.36 0 4 c 0 2.216 1.784 4 4 4 l 38 0 c 2.216 0 4 -1.784 4 -4 l 0 -4 c 0 2.216 -1.784 4 -4 4 l -38 0 c -2.216 0 -4 -1.784 -4 -4 z"
         opacity="0.1"
         id="path67" />
    </g>
  </g>
  <g
     transform="matrix(0.36024369,0,0,0.34178977,13.067687,18.055772)"
     id="g79">
    <g
       transform="translate(-2.7003263,1.1333895e-6)"
       id="g77">
      <g
         transform="translate(2.7758987,-2.925775)"
         id="g75">
        <g
           transform="translate(-5.6720596,-2.700325)"
           id="g27">
          <path
             inkscape:connector-curvature="0"
             d="m -5.695,-3.303 27,46.801 H 34.81 L 41.495,31.795 48.31,43.498 H 75.32 L 68.57,31.806 H 55.065 L 48.315,20.103 55.065,8.4 H 55.038 L 55.065,8.389 H 68.57 L 75.32,-3.303 H 48.31 l -20.695,35.1 -19.811,-35.1"
             style="opacity:0.1;fill:#000000;fill-opacity:1"
             id="path25" />
        </g>
        <g
           transform="translate(-2.8949203,-2.7003253)"
           id="g73">
          <path
             inkscape:connector-curvature="0"
             d="M 72.54,40.572 H 59.038 v -8.101 l 6.751,-3.592 z"
             style="fill:#2bac8f"
             id="path29" />
          <path
             inkscape:connector-curvature="0"
             d="M 65.787,28.879 H 52.286 l 1.351,6.292 5.4,5.4 z"
             style="fill:#2e997c"
             id="path31" />
          <path
             inkscape:connector-curvature="0"
             d="M 59.04,40.572 H 45.538 l 2.701,-8.101 4.05,-3.592 z"
             style="fill:#278768"
             id="path33" />
          <path
             inkscape:connector-curvature="0"
             d="m 45.535,17.18 -5.4,-3.618 -8.102,3.618 6.751,11.692 z"
             style="fill:#21674f"
             id="path35" />
          <path
             inkscape:connector-curvature="0"
             d="M 52.29,28.879 45.54,27.07 38.789,28.879 45.54,40.571 Z"
             style="fill:#2a8d70"
             id="path37" />
          <path
             inkscape:connector-curvature="0"
             d="M 52.29,28.869 H 38.789 l 3.318,-5.747 3.432,-5.945 z"
             style="fill:#2f9f81"
             id="path39" />
          <path
             inkscape:connector-curvature="0"
             d="M 72.54,-6.229 H 59.039 v 6.267 l 6.75,5.425 z"
             style="fill:#96cfba"
             id="path41" />
          <path
             inkscape:connector-curvature="0"
             d="M 65.788,5.463 H 52.286 l 1.35,-8.126 5.4,-3.566 z"
             style="fill:#85c8b1"
             id="path43" />
          <path
             inkscape:connector-curvature="0"
             d="M 59.04,-6.229 H 45.539 v 6.267 l 6.75,5.425 z"
             style="fill:#6bbfa4"
             id="path45" />
          <path
             inkscape:connector-curvature="0"
             d="M 52.29,5.465 45.54,8.14 38.789,5.465 45.54,-6.227 Z"
             style="fill:#52b99b"
             id="path47" />
          <path
             inkscape:connector-curvature="0"
             d="M 52.29,5.474 H 38.789 l 1.351,5.375 5.4,6.317 z"
             style="fill:#44b799"
             id="path49" />
          <path
             inkscape:connector-curvature="0"
             d="M 45.535,17.17 H 32.034 L 38.785,5.478 Z"
             style="fill:#33b394"
             id="path51" />
          <path
             inkscape:connector-curvature="0"
             d="m 38.784,28.87 -6.75,3.592 -6.752,-3.592 6.751,-11.692 z"
             style="fill:#2da4ad"
             id="path53" />
          <path
             inkscape:connector-curvature="0"
             d="M 38.785,28.879 H 25.283 l 0.216,7.607 6.535,4.086 z"
             style="fill:#2f98af"
             id="path55" />
          <path
             inkscape:connector-curvature="0"
             d="M 32.03,40.572 H 18.528 l 0.001,-8.101 6.75,-3.592 3.328,5.763 z"
             style="fill:#0d657a"
             id="path57" />
          <path
             inkscape:connector-curvature="0"
             d="m 25.282,28.879 -6.75,-1.809 -6.752,1.809 6.751,11.692"
             style="fill:#2a69b1"
             id="path59" />
          <path
             inkscape:connector-curvature="0"
             d="M 25.282,28.869 H 11.781 l 1.351,-7.209 5.4,-4.483 z"
             style="fill:#2077bc"
             id="path61" />
          <path
             inkscape:connector-curvature="0"
             d="m 18.531,17.18 -8.1,-3.618 -5.402,3.618 6.751,11.692"
             style="fill:#2886c7"
             id="path63" />
          <path
             inkscape:connector-curvature="0"
             d="M 18.532,17.17 H 5.03 l 10e-4,-9.02 6.75,-2.674 z"
             style="fill:#238dcd"
             id="path65" />
          <path
             inkscape:connector-curvature="0"
             d="M 11.82,5.439 5.03,2.713 -1.722,5.439 5.049,17.166"
             style="fill:#1a9cd1"
             id="path67-3" />
          <path
             inkscape:connector-curvature="0"
             d="M 11.78,5.463 H -1.721 l 1.351,-5.426 5.4,-6.266 z"
             style="fill:#0ea6d3;stroke:none"
             id="path69" />
          <path
             inkscape:connector-curvature="0"
             d="M 5.03,-6.229 H -8.471 L -1.72,5.463 Z"
             style="fill:#08abd8;stroke:none"
             id="path71" />
        </g>
      </g>
    </g>
  </g>
</svg>
